icons/mail-close-fill.svg

<svg xmlns="http://www.w3.org/2000/svg" width="24" height="24" fill="none"><g clip-path="url(#a)"><g><path fill="#121212" d="M22 13.341C20.9317 12.9626 19.7781 12.8945 18.6727 13.1446C17.5674 13.3946 16.5554 13.9527 15.754 14.754C14.9527 15.5554 14.3946 16.5674 14.1446 17.6727C13.8945 18.7781 13.9626 19.9317 14.341 21H3C2.73478 21 2.48043 20.8946 2.29289 20.7071C2.10536 20.5196 2 20.2652 2 20V4C2 3.73478 2.10536 3.48043 2.29289 3.29289C2.48043 3.10536 2.73478 3 3 3H21C21.2652 3 21.5196 3.10536 21.7071 3.29289C21.8946 3.48043 22 3.73478 22 4V13.341ZM12.06 11.683L5.648 6.238L4.353 7.762L12.073 14.317L19.654 7.757L18.346 6.244L12.061 11.683H12.06ZM21.415 19L23.537 21.121L22.122 22.536L20 20.414L17.879 22.536L16.464 21.121L18.586 19L16.464 16.879L17.879 15.464L20 17.586L22.121 15.464L23.536 16.879L21.414 19H21.415Z"/></g></g><defs><clipPath id="a"><rect width="24" height="24" fill="white"/></clipPath></defs></svg>

<svg width="24" height="24" fill="none" xmlns="http://www.w3.org/2000/svg"><g clip-path="url(#a)"><path d="M22 13.341A6 6 0 0 0 14.341 21H3a1 1 0 0 1-1-1V4a1 1 0 0 1 1-1h18a1 1 0 0 1 1 1v9.341Zm-9.94-1.658L5.648 6.238 4.353 7.762l7.72 6.555 7.581-6.56-1.308-1.513-6.285 5.439h-.001ZM21.415 19l2.122 2.121-1.415 1.415L20 20.414l-2.121 2.122-1.415-1.415L18.586 19l-2.122-2.121 1.415-1.415L20 17.586l2.121-2.122 1.415 1.415L21.414 19h.001Z" /></g><defs><clipPath id="a"><path fill="#fff" d="M0 0h24v24H0z"/></clipPath></defs></svg>
